X:10
%%id auld-lang-syne
%%ko 올드 랭 사인 (석별의 정)
%%en Auld Lang Syne
%%ja 蛍の光
%%src 스코틀랜드 민요 (Robert Burns, 1788), Wikipedia 악보 (F장조)
%%bpm 84
M:4/4
L:1/8
K:F
C2 | F3F F2A2 | G3F G2A2 | F3F A2c2 | d6 d2 | c3A A2F2 | G3F G2A2 | F3D D2C2 | F6 d2 | c3A A2F2 | G3F G2d2 | c3A A2c2 | d6 d2 | c3A A2F2 | G3F G2A2 | F3D D2C2 | F6 |]

